!!!!SEGMENT: pl-wtm--r-1552--003_stefani-jozef--missa-no-13-graduale.krn
!!!cenid: 18xx:1814
!!!COM: Stefani, Józef
!!!COM-rismid: pe30024097
!!!CDT: 1800/04/16-1876/03/19
!!!CNT: Polish
!!!OPR: Missa No 13
!!!OTL: Graduale
!!!OMV: 003
!!!PDT:
!!!AGN: Sacred; Mass
!!!SMS-siglum: PL-Wtm
!!!SMS-shelfmark: R 1552
!!!SMS-shelfwork: 001-003 M
!!!SMS-variant:
!!!SMS-altvar:
!!!NIFC-rismid: 1001115180
!!!URL-scan: http://repozytorium.nifc.pl/skany/pl-wtm-nut--r1552
!!!ONB-nifc: UWAGA: części Mszy: 1. Kyrie, 2. Gloria, 3. Graduale, 4. Credo, 5. Offertorium, 6. Sanctus, 7. Benedictus, 8. Agnus Dei
**kern	**kern	**kern	**dynam	**kern	**dynam	**kern	**dynam	**kern	**dynam	**kern	**text	**dynam	**kern	**text	**dynam	**kern	**text	**dynam	**kern	**text	**dynam
*part9	*part9	*part8	*part8	*part7	*part7	*part6	*part6	*part5	*part5	*part4	*part4	*part4	*part3	*part3	*part3	*part2	*part2	*part2	*part1	*part1	*part1
*staff10	*staff9	*staff8	*	*staff7	*	*staff6	*	*staff5	*	*staff4	*staff4	*	*staff3	*staff3	*	*staff2	*staff2	*	*staff1	*staff1	*
*Iorgan	*Iempty	*Iempty	*	*Iviola	*	*Ivioln	*	*Ivioln	*	*Ibass	*	*	*Itenor	*	*	*Ialto	*	*	*Isoprn	*	*
*I"Organo.	*	*I"Bassi	*	*I"Viole	*	*I"[Violino II]	*	*I"Violini	*	*I"Basso	*	*	*I"Tenore	*	*	*I"[Alt]	*	*	*I"Soprani	*	*
*I'Org.	*	*I'B-i	*	*I'V-le	*	*I'[V-no II]	*	*I'V-ni	*	*I'B.	*	*	*I'T.	*	*	*I'[A.]	*	*	*I'S.	*	*
*clefF4	*clefG2	*clefF4	*	*clefC3	*	*clefG2	*	*clefG2	*	*clefF4	*	*	*clefC4	*	*	*clefG2	*	*	*clefG2	*	*
*	*	*Trd0c0	*	*	*	*	*	*	*	*	*	*	*	*	*	*	*	*	*	*	*
*k[f#c#]	*k[f#c#]	*k[f#c#]	*	*k[f#c#]	*	*k[f#c#]	*	*k[f#c#]	*	*k[f#c#]	*	*	*k[f#c#]	*	*	*k[f#c#]	*	*	*k[f#c#]	*	*
*D:	*D:	*D:	*	*D:	*	*D:	*	*D:	*	*D:	*	*	*D:	*	*	*D:	*	*	*D:	*	*
*M4/4	*M4/4	*M4/4	*	*M4/4	*	*M4/4	*	*M4/4	*	*M4/4	*	*	*M4/4	*	*	*M4/4	*	*	*M4/4	*	*
*met(c)	*met(c)	*met(c)	*	*met(c)	*	*met(c)	*	*met(c)	*	*met(c)	*	*	*met(c)	*	*	*met(c)	*	*	*met(c)	*	*
!	!	!	!LO:DY:rj	!	!	!	!	!	!	!	!	!LO:DY:rj:a	!	!	!	!	!	!	!LO:TX:rj:i:a:t=Andantino.	!	!
4A/ 4AA/	4r	4AA/	p	4r	.	4r	.	4r	.	4A\	Po-	p	4r	.	.	4r	.	.	4r	.	.
=1	=1	=1	=1	=1	=1	=1	=1	=1	=1	=1	=1	=1	=1	=1	=1	=1	=1	=1	=1	=1	=1
*	*	*	*	*	*	*	*	*	*	*2\right	*	*	*	*	*	*	*	*	*	*	*
[1A\ [1AA\	2r	2AA/	.	2r	.	1r	.	1r	.	2A\	-wstań-	.	2r	.	.	1r	.	.	1r	.	.
.	4r	4AA/	.	4r	.	.	.	.	.	4A\	-cie	.	4r	.	.	.	.	.	.	.	.
!	!	!	!	!	!	!	!	!	!	!	!	!	!	!	!LO:DY:a	!	!	!	!	!	!
.	.	.	.	.	.	.	.	.	.	.	.	.	.	.	p	.	.	.	.	.	.
.	4c#/	4A\	.	4c#/	.	.	.	.	.	4A\	po-	.	4c#\	Po-	.	.	.	.	.	.	.
=2	=2	=2	=2	=2	=2	=2	=2	=2	=2	=2	=2	=2	=2	=2	=2	=2	=2	=2	=2	=2	=2
*	*^	*	*	*	*	*	*	*	*	*	*	*	*	*	*	*	*	*	*	*	*
*	*	*	*2\right	*	*	*	*	*	*	*	*	*	*	*2\right	*	*	*	*	*	*	*	*
1A\] 1AA\]	2r	1c#\	2A\	.	2c#/	.	2r	.	1r	.	2A\	-wstań-	.	2c#\	-wstań-	.	2r	.	.	1r	.	.
.	4r	.	4AA/	.	4c#/	.	4r	.	.	.	4A\	-cie	.	4c#\	-cie	.	4r	.	.	.	.	.
!	!	!	!	!	!	!	!	!	!	!	!	!	!	!	!	!	!	!	!LO:DY:a	!	!	!
.	.	.	.	.	.	.	.	p	.	.	.	.	.	.	.	.	.	.	p	.	.	.
.	4e/	.	4A\	.	4c#/	.	4e/	.	.	.	4A\	po-	.	4c#\	po-	.	4e/	Po-	.	.	.	.
=3	=3	=3	=3	=3	=3	=3	=3	=3	=3	=3	=3	=3	=3	=3	=3	=3	=3	=3	=3	=3	=3	=3
4AA/	2r	(4.g/ 4.e/	4AA/	.	(4.e\	.	(4.g/	.	2r	.	2A\	-wstań-	.	(4.e\	-wstań-	.	(4.g/	-wstań-	.	2r	.	.
4A\	.	.	4A\	.	.	.	.	.	.	.	.	.	.	.	.	.	.	.	.	.	.	.
.	.	8f#/ 8d/)	.	.	8d\)	.	8f#/)	.	.	.	.	.	.	8d\)	.	.	8f#/)	.	.	.	.	.
*	*	*2\right	*	*	*	*	*	*	*	*	*	*	*	*	*	*	*	*	*	*	*	*
4AA/	4r	2e\ 2c#\	4AA/	.	4c#\	.	4e/	.	4r	.	4A\	-cie	.	4c#\	-cie	.	4e/	-cie	.	4r	.	.
!	!	!	!	!	!	!	!	!	!	!LO:HP:b	!	!	!	!	!	!	!	!	!	!	!	!
4A\	4a/	.	4A\	.	4c#\	.	4e/	.	4a/	<[	(4A\	świa-	.	(4c#\	świa-	.	(4e/	.	.	[>4a/	świa-	.
=4	=4	=4	=4	=4	=4	=4	=4	=4	=4	=4	=4	=4	=4	=4	=4	=4	=4	=4	=4	=4	=4	=4
*^	*	*	*	*	*	*	*	*	*	*	*	*	*	*	*	*	*	*	*	*	*	*
!	!	!	!	!	!	!	!	!	!	!	!LO:DY:a	!	!	!	!	!	!	!	!	!	!	!	!
2A/ 2F#/	1D\	2a/ 2f#/ 2d/	2ryy	2D\	.	2c#\	.	2f#/	.	2a/	f	2D\)	.	.	2d\)	.	.	2f#/)	.	.	2a/]	.	.
!	!	!	!	!	!	!	!	!	!	!	!	!	!	!	!	!	!	!	!	!	!LO:TX:a:t=P:problem:all\right:global	!	!
2B/ 2G/	.	4.b/	2g\ 2d\	4.D\	.	4.d\	.	4.g/	.	4.b\	.	4.D\	-tło-	.	4.d\	-tło-	.	4.g/	.	.	(4.b\	-tło-	.
.	.	8dd/	.	8D\	.	8B/	.	8g/	.	8dd\	.	8D\	-ści	.	8B\	-ści	.	8g/	.	.	8dd\)	-ści	.
*	*	*v	*v	*	*	*	*	*	*	*	*	*	*	*	*	*	*	*	*	*	*	*	*
=5	=5	=5	=5	=5	=5	=5	=5	=5	=5	=5	=5	=5	=5	=5	=5	=5	=5	=5	=5	=5	=5	=5
*	*2\right	*	*	*	*	*	*	*	*	*	*	*	*	*	*	*	*	*	*	*	*	*
2.A/ 2.F#/	2.D\	4.a/ 4.f#/	2.D\	.	2.A/	.	(4.f#/	.	(4.a/	.	2D\	sy-	.	2A\	sy-	.	(4.f#/	.	.	(4.a/	sy-	.
.	.	8f#/ 8d/	.	.	.	.	8d/)	.	8f#/)	.	.	.	.	.	.	.	8d/)	.	.	8f#/)	.	.
.	.	4a/ 4f#/	.	.	.	.	4f#/	.	4a/	.	4D\	-ny	.	4A\	-ny	.	4f#/	.	.	4a/	-ny	.
4D/	4DD/	4dd/ 4f#/	4D\	.	4r	.	4f#/	.	4dd\	.	4D\	po	.	4r	.	.	4e/	.	.	4dd\	po-	.
*v	*v	*	*	*	*	*	*	*	*	*	*	*	*	*	*	*	*	*	*	*	*	*
!!LO:LB:g=original
=6	=6	=6	=6	=6	=6	=6	=6	=6	=6	=6	=6	=6	=6	=6	=6	=6	=6	=6	=6	=6	=6
*	*^	*	*	*	*	*	*	*	*	*	*	*	*	*	*	*	*	*	*	*	*
*	*	*	*	*	*	*	*	*	*2\right	*	*	*	*	*	*	*	*	*	*	*2\right	*	*
2.E/ 2.EE/	2dd/	1g\	2.E\	.	1r	.	1g/	.	(2dd\	.	2E\	.	.	1r	.	.	2g/	.	.	2dd\	-kor-	.
.	4cc#/	.	.	.	.	.	.	.	4cc#\)	.	(4E\	.	.	.	.	.	2g/	.	.	(4cc#\	-nem	.
4G/ 4GG/	4b/	.	4G\	.	.	.	.	.	4b\	.	4G\)	.	.	.	.	.	.	.	.	4b\)	.	.
*	*v	*v	*	*	*	*	*	*	*	*	*	*	*	*	*	*	*	*	*	*	*	*
=7	=7	=7	=7	=7	=7	=7	=7	=7	=7	=7	=7	=7	=7	=7	=7	=7	=7	=7	=7	=7	=7
2F#/ 2FF#/	2a/ 2d/	(2F#\	.	2r	.	(2d/	.	(2a/	.	2F#\	.	.	2r	.	.	2d/	.	.	2a/	czu-	.
4E/ 4EE/	4g/ 4c#/	4E\	.	4r	.	4c#/	.	4g/)	.	4E\	.	.	4r	.	.	4c#/	.	.	4g/	-ciem	.
4D/ 4DD/	4f#/ 4d/	4D\)	.	4A/	.	4d/)	.	4f#/	.	4D\	.	.	4A\	.	.	4d/	.	.	4f#/	prze-	.
=8	=8	=8	=8	=8	=8	=8	=8	=8	=8	=8	=8	=8	=8	=8	=8	=8	=8	=8	=8	=8	=8
*	*^	*	*	*	*	*	*	*	*	*	*	*	*	*	*	*	*	*	*	*	*
*	*	*^	*	*	*	*	*	*	*	*	*	*	*	*	*	*	*	*	*	*	*	*
2D/ 2DD/	2f#/ 2d/	2ryy	2ryy	2D\	.	2A/	.	2d/	.	(4f#/	.	(2D\	.	.	(2A\	.	.	(2d/	.	.	(>2f#SsSs/	-ię-	.
.	.	.	.	.	.	.	.	.	.	16g/LL	.	.	.	.	.	.	.	.	.	.	.	.	.
.	.	.	.	.	.	.	.	.	.	16f#/	.	.	.	.	.	.	.	.	.	.	.	.	.
.	.	.	.	.	.	.	.	.	.	16e/	.	.	.	.	.	.	.	.	.	.	.	.	.
.	.	.	.	.	.	.	.	.	.	16f#/JJ	.	.	.	.	.	.	.	.	.	.	.	.	.
2G\ 2GG\	4.a/	2e\	4.B\	2GG/	.	4.B/	.	2e/	.	4.a/	.	2GG/)	.	.	4.B\	.	.	2e/)	.	.	4.a/	.	.
.	8g/	.	8B-X\	.	.	8B-X/	.	.	.	8g/)	.	.	.	.	8B-X\)	.	.	.	.	.	8g/	.	.
*	*v	*v	*v	*	*	*	*	*	*	*	*	*	*	*	*	*	*	*	*	*	*	*	*
=9	=9	=9	=9	=9	=9	=9	=9	=9	=9	=9	=9	=9	=9	=9	=9	=9	=9	=9	=9	=9	=9
2.E/ 2.AA/	2.e/ 2.c#/ 2.A/	8AA/L	.	2.A/	.	2.c#/	.	2.e/	.	2AA/	.	.	2A\	.	.	2c#/	.	.	2e/)	-te	.
.	.	8AA/	.	.	.	.	.	.	.	.	.	.	.	.	.	.	.	.	.	.	.
.	.	8C#/	.	.	.	.	.	.	.	.	.	.	.	.	.	.	.	.	.	.	.
!	!	!	!	!	!LO:DY:b	!	!	!	!	!	!	!	!	!	!	!	!	!	!	!	!
.	.	8E/J	.	.	p	.	.	.	.	.	.	.	.	.	.	.	.	.	.	.	.
.	.	4A\	.	.	.	.	.	.	.	4r	.	.	4r	.	.	4r	.	.	4r	.	.
!	!	!	!	!	!	!	!	!	!LO:DY:rj:b	!LO:N:vis=2	!	!	!	!	!	!	!	!	!	!	!
.	.	.	p	.	.	.	.	.	p	.	.	.	.	.	.	.	.	.	.	.	.
4A\ 4AA\	4e/ 4c#/	4AA/	.	4A/	.	4c#/	.	4e/	.	4r	.	.	4A\	.	.	4c#/	.	.	4e/	Pan	.
=10	=10	=10	=10	=10	=10	=10	=10	=10	=10	=10	=10	=10	=10	=10	=10	=10	=10	=10	=10	=10	=10
*^	*^	*^	*	*	*	*	*	*	*	*	*	*	*	*	*	*	*	*	*	*	*
8AA/L	2AA\	2e/	1c#\	8AA/L	4AA\	.	2A/	.	2c#/	.	2e/	.	1r	.	.	2A\	.	.	2c#/	.	.	2e/	z gór-	.
8A/	.	.	.	8A/	.	.	.	.	.	.	.	.	.	.	.	.	.	.	.	.	.	.	.	.
8E/	.	.	.	8E/	4r	.	.	.	.	.	.	.	.	.	.	.	.	.	.	.	.	.	.	.
8A/J	.	.	.	8A/J	.	.	.	.	.	.	.	.	.	.	.	.	.	.	.	.	.	.	.	.
*rep	*	*	*	*rep	*	*	*	*	*	*	*	*	*	*	*	*	*	*	*	*	*	*	*	*
8AA/L	2AA\	2a/	.	8AA/L	4AA\	.	2A/	.	2c#/	.	2a/	.	.	.	.	2A\	.	.	2c#/	.	.	2a/	-nej	.
8A/	.	.	.	8A/	.	.	.	.	.	.	.	.	.	.	.	.	.	.	.	.	.	.	.	.
8E/	.	.	.	8E/	4r	.	.	.	.	.	.	.	.	.	.	.	.	.	.	.	.	.	.	.
8A/J	.	.	.	8A/J	.	.	.	.	.	.	.	.	.	.	.	.	.	.	.	.	.	.	.	.
*Xrep	*	*	*	*Xrep	*	*	*	*	*	*	*	*	*	*	*	*	*	*	*	*	*	*	*	*
*	*	*v	*v	*	*	*	*	*	*	*	*	*	*	*	*	*	*	*	*	*	*	*	*	*
=11	=11	=11	=11	=11	=11	=11	=11	=11	=11	=11	=11	=11	=11	=11	=11	=11	=11	=11	=11	=11	=11	=11	=11
8AA/L	2AA\	2cc#/ 2e/	8AA/L	4AA\	.	2A/	.	(2e/	.	(2cc#\	.	2r	.	.	2A\	.	.	2e/	.	.	2cc#\	Nie-	.
8A/	.	.	8A/	.	.	.	.	.	.	.	.	.	.	.	.	.	.	.	.	.	.	.	.
8E/	.	.	8E/	4r	.	.	.	.	.	.	.	.	.	.	.	.	.	.	.	.	.	.	.
8A/J	.	.	8A/J	.	.	.	.	.	.	.	.	.	.	.	.	.	.	.	.	.	.	.	.
*rep	*	*	*rep	*	*	*	*	*	*	*	*	*	*	*	*	*	*	*	*	*	*	*	*
8AA/L	2AA\	4a/ 4c#/	8AA/L	4AA\	.	4A/	.	4c#/)	.	4a/)	.	4r	.	.	4A\	.	.	4c#/	.	.	4a/	-ba	.
8A/	.	.	8A/	.	.	.	.	.	.	.	.	.	.	.	.	.	.	.	.	.	.	.	.
8E/	.	4cc#/ 4e/	8E/	4r	.	4A/	.	4e/	.	4cc#\	.	4A\	.	.	4A\	.	.	4e/	.	.	4cc#\	Kra-	.
8A/J	.	.	8A/J	.	.	.	.	.	.	.	.	.	.	.	.	.	.	.	.	.	.	.	.
*Xrep	*	*	*Xrep	*	*	*	*	*	*	*	*	*	*	*	*	*	*	*	*	*	*	*	*
!!LO:PB:g=original
=12	=12	=12	=12	=12	=12	=12	=12	=12	=12	=12	=12	=12	=12	=12	=12	=12	=12	=12	=12	=12	=12	=12	=12
*tremolo	*	*	*tremolo	*	*	*	*	*	*	*	*	*	*	*	*	*	*	*	*	*	*	*	*
8AA/L	2AA\	2ee/ 2g/	8AA/L	2AA\	.	1A/	.	(2g/	.	(2ee\	.	(2A\	.	.	1A\	.	.	(>2g/	.	.	(2ee\	-i-	.
8A/	.	.	8A/	.	.	.	.	.	.	.	.	.	.	.	.	.	.	.	.	.	.	.	.
8AA/	.	.	8AA/	.	.	.	.	.	.	.	.	.	.	.	.	.	.	.	.	.	.	.	.
8A/J	.	.	8A/J	.	.	.	.	.	.	.	.	.	.	.	.	.	.	.	.	.	.	.	.
*rep	*rep	*	*rep	*	*	*	*	*	*	*	*	*	*	*	*	*	*	*	*	*	*	*	*
8AA/L	2AA\	4dd/ 4f#/	8AA/L	4AA\	.	.	.	4f#/)	.	4dd\)	.	2AA/)	.	.	.	.	.	4f#/	.	.	4dd\	.	.
8A/	.	.	8A/	.	.	.	.	.	.	.	.	.	.	.	.	.	.	.	.	.	.	.	.
8AA/	.	4cc#/ 4e#X/	8AA/	4AA\	.	.	.	4e#X/	.	4cc#\	.	.	.	.	.	.	.	4e#X/)	.	.	4cc#\)	.	.
8A/J	.	.	8A/J	.	.	.	.	.	.	.	.	.	.	.	.	.	.	.	.	.	.	.	.
*Xrep	*Xrep	*	*Xtremolo	*Xtremolo	*	*	*	*	*	*	*	*	*	*	*	*	*	*	*	*	*	*	*
*Xtremolo	*	*	*Xrep	*	*	*	*	*	*	*	*	*	*	*	*	*	*	*	*	*	*	*	*
=13	=13	=13	=13	=13	=13	=13	=13	=13	=13	=13	=13	=13	=13	=13	=13	=13	=13	=13	=13	=13	=13	=13	=13
8D/L	2D\	2dd/ 2f#/	8D/L	4D\	.	2A/	.	2f#/	.	2dd\	.	2D\	.	.	2A\	.	.	2f#/	.	.	2dd\	-ny	.
8d/	.	.	8d/	.	.	.	.	.	.	.	.	.	.	.	.	.	.	.	.	.	.	.	.
8A/	.	.	8A/	4r	.	.	.	.	.	.	.	.	.	.	.	.	.	.	.	.	.	.	.
8d/J	.	.	8d/J	.	.	.	.	.	.	.	.	.	.	.	.	.	.	.	.	.	.	.	.
!	!	!	!	!	!	!	!	!	!	!	!	!	!	!	!	!	!	!	!	!	!	!	!LO:DY:a
8D/L	2D\	2b/ 2f#/ 2d/	8D/L	4D\	.	2B/	.	2f#/	.	2b\	.	2D\	.	.	2B\	.	.	2f#/	.	.	2b\	O-	>]
8B/	.	.	8B/	.	.	.	.	.	.	.	.	.	.	.	.	.	.	.	.	.	.	.	.
8F#/	.	.	8F#/	4r	.	.	.	.	.	.	.	.	.	.	.	.	.	.	.	.	.	.	.
8B/J	.	.	8B/J	.	.	.	.	.	.	.	.	.	.	.	.	.	.	.	.	.	.	.	.
*	*	*	*v	*v	*	*	*	*	*	*	*	*	*	*	*	*	*	*	*	*	*	*	*
=14	=14	=14	=14	=14	=14	=14	=14	=14	=14	=14	=14	=14	=14	=14	=14	=14	=14	=14	=14	=14	=14	=14
*	*	*^	*	*	*	*	*	*	*	*	*	*	*	*	*	*	*	*	*	*	*	*
!	!	!	!	!	!	!	!	!	!	!	!LO:DY:rj:a	!	!	!	!	!	!	!	!	!	!	!	!LO:DY:rj:a
4.A/	1E\	4.cc#/	1e\	4E\	.	(4.A/	.	2.e/	.	(4.cc#\	f	2E\	.	.	(4.A\	.	.	2e/	.	.	(4.cc#\	-gła-	f
.	.	.	.	4r	.	.	.	.	.	.	.	.	.	.	.	.	.	.	.	.	.	.	.
16B/LL	.	16dd/LL	.	.	.	16B/LL	.	.	.	16dd\LL	.	.	.	.	16B\LL	.	.	.	.	.	16dd\LL	.	.
16A/JJ	.	16cc#/JJ	.	.	.	16A/JJ	.	.	.	16cc#\JJ	.	.	.	.	16A\JJ)	.	.	.	.	.	16cc#\JJ)	.	.
4G#X/	.	4b/	.	4E\	.	4G#X/)	.	.	.	4b\	.	4E\	.	.	4G#X/	.	.	4e/	.	.	4b\	-sza	.
4A/	.	4cc#/	.	4r	.	4A/	.	[4e/	.	(4cc#\)	.	[4E\	.	.	(4A\	.	.	[4e/	.	.	(4cc#\	Na-	.
=15	=15	=15	=15	=15	=15	=15	=15	=15	=15	=15	=15	=15	=15	=15	=15	=15	=15	=15	=15	=15	=15	=15	=15
2c#/	1E\	(2ee/	2.e\	4E\	.	2c#/	.	2.e/]	.	(2ee\)	.	2E\]	.	.	2c#\)	.	.	2e/]	.	.	2ee\)	.	.
.	.	.	.	4r	.	.	.	.	.	.	.	.	.	.	.	.	.	.	.	.	.	.	.
4B/	.	4dd/)	.	4E\	.	4B/	.	.	.	4dd\)	.	4E\	.	.	4B\	.	.	4e/	.	.	4dd\	-u-	.
4G#X/	.	4b/	4e\	4r	.	4G#X/	.	4e/	.	4b\	.	4E\	.	.	4G#X/	.	.	4e/	.	.	4b\	-ki	.
*v	*v	*	*	*	*	*	*	*	*	*	*	*	*	*	*	*	*	*	*	*	*	*	*
=16	=16	=16	=16	=16	=16	=16	=16	=16	=16	=16	=16	=16	=16	=16	=16	=16	=16	=16	=16	=16	=16	=16
2..B\ 2..G#X\ 2..E\	2..b/ 2..e/	2..d\	(2..E\	.	(2..G#X/	.	(2..d/	.	2..b\	.	(2..E\	świę-	.	(2..G#X/	.	.	(2..d/	.	.	(2..b\	świę-	.
!	!	!	!	!	!	!	!	!LO:DY:a	!	!	!LO:SIC:v:t=wymazane "te"	!	!	!	!	!	!	!	!	!	!	!
8A\	8a/ 8e/ 8c#/	8ryy	8A\)	.	8A/)	.	8c#/)	f	8a/	.	8A\)	.	.	8A/)	.	.	8c#/)	.	.	8a/)	.	.
*	*v	*v	*	*	*	*	*	*	*	*	*	*	*	*	*	*	*	*	*	*	*	*
=17	=17	=17	=17	=17	=17	=17	=17	=17	=17	=17	=17	=17	=17	=17	=17	=17	=17	=17	=17	=17	=17
!	!	!	!	!	!LO:DY:rj:b	!	!	!	!	!	!	!	!	!	!	!	!	!	!	!	!
2.A\	2.a/ 2.e/ 2.c#/	8A\L	.	8A\L	f	8c#/L	.	8a\L	.	2.A\	-te	.	2.A\	.	.	2.c#/	.	.	2.a/	-te.	.
.	.	8A\	.	8a\	.	8c#/	.	8a\	.	.	.	.	.	.	.	.	.	.	.	.	.
.	.	8E\	.	8e\	.	8e/	.	8cc#\	.	.	.	.	.	.	.	.	.	.	.	.	.
.	.	8C#\J	.	8c#\J	.	8a/J	.	8ee\J	.	.	.	.	.	.	.	.	.	.	.	.	.
.	.	4AA/	.	4A/	.	4cc#\	.	4aa\	.	.	.	.	.	.	.	.	.	.	.	.	.
!	!	!	!LO:DY:a	!	!	!	!	!	!	!	!	!LO:DY:a	!	!	!	!	!	!	!	!	!
.	.	.	p	.	.	.	.	.	.	.	.	p	.	.	.	.	.	.	.	.	.
4A/ 4AA/	4r	4AA/	.	4r	.	4r	.	4r	.	4A\	U-	.	4r	.	.	4r	.	.	4r	.	.
!!LO:LB:g=original
=18	=18	=18	=18	=18	=18	=18	=18	=18	=18	=18	=18	=18	=18	=18	=18	=18	=18	=18	=18	=18	=18
[1A\ [1AA\	2r	2AA/	.	2r	.	1r	.	1r	.	2A\	-znaj-	.	2r	.	.	1r	.	.	1r	.	.
.	4r	4AA/	.	4r	.	.	.	.	.	4A\	-cie	.	4r	.	.	.	.	.	.	.	.
!	!	!	!	!	!	!	!	!	!	!	!	!	!	!	!LO:DY:a	!	!	!	!	!	!
.	.	.	.	.	.	.	.	.	.	.	.	.	.	.	p	.	.	.	.	.	.
!	!	!	!	!	!LO:DY:b	!	!	!	!	!	!	!	!	!	!	!	!	!	!	!	!
.	.	.	.	.	p	.	.	.	.	.	.	.	.	.	.	.	.	.	.	.	.
.	4c#/	4A\	.	4c#\	.	.	.	.	.	4A\	U-	.	4c#\	U-	.	.	.	.	.	.	.
=19	=19	=19	=19	=19	=19	=19	=19	=19	=19	=19	=19	=19	=19	=19	=19	=19	=19	=19	=19	=19	=19
*	*^	*	*	*	*	*	*	*	*	*	*	*	*	*	*	*	*	*	*	*	*
*	*	*	*	*	*2\right	*	*	*	*	*	*	*	*	*	*	*	*	*	*	*	*	*
1A\] 1AA\]	2r	2c#/	2A\	.	2c#\	.	2r	.	1r	.	2A\	-znaj-	.	2c#\	-znaj-	.	2r	.	.	1r	.	.
.	4r	2ryy	4AA/	.	4c#\	.	4r	.	.	.	4A\	-cie	.	4c#\	-cie	.	4r	.	.	.	.	.
!	!	!	!	!	!	!	!	!	!	!	!	!	!	!	!	!	!	!	!LO:DY:a	!	!	!
.	.	.	.	.	.	.	.	p	.	.	.	.	.	.	.	.	.	.	p	.	.	.
.	4e/	.	4A\	.	4c#\	.	4e/	.	.	.	4A\	u-	.	4c#\	u-	.	4e/	U-	.	.	.	.
*	*v	*v	*	*	*	*	*	*	*	*	*	*	*	*	*	*	*	*	*	*	*	*
=20	=20	=20	=20	=20	=20	=20	=20	=20	=20	=20	=20	=20	=20	=20	=20	=20	=20	=20	=20	=20	=20
4AA/	4.g/ 4.e/	4AA/	.	(4.e\	.	(4.g/	.	2r	.	2A\	-znaj-	.	(4.e\	-znaj-	.	(4.g/	-znaj-	.	2r	.	.
4A\	.	4A\	.	.	.	.	.	.	.	.	.	.	.	.	.	.	.	.	.	.	.
.	8f#/ 8d/	.	.	8d\)	.	8f#/)	.	.	.	.	.	.	8d\)	.	.	8f#/)	.	.	.	.	.
4AA/	4e/ 4c#/	4AA/	.	4c#\	.	4e/	.	4r	.	4A\	-cie	.	4c#\	-cie	.	4e/	-cie	.	4r	.	.
!	!	!	!	!	!	!	!	!	!LO:HP:b	!	!	!	!	!	!	!	!	!	!	!	!
4A\	4a/ 4e/ 4c#/	4A\	.	4c#\	.	4e/	.	(4a/	<[	(4A\	pra-	.	(4c#\	.	.	(4e/	.	.	[>4a/	pra-	.
=21	=21	=21	=21	=21	=21	=21	=21	=21	=21	=21	=21	=21	=21	=21	=21	=21	=21	=21	=21	=21	=21
*^	*^	*	*	*	*	*	*	*	*	*	*	*	*	*	*	*	*	*	*	*	*
!	!	!	!	!	!LO:DY:rj:a	!	!	!	!	!	!LO:DY:rj:a	!	!	!	!	!	!	!	!	!	!	!	!
2A/ 2F#/	1D\	2a/ 2f#/ 2d/	2ryy	2D\	f	2d\	.	2f#/	.	2a/)	f	2D\)	.	.	2d\)	.	.	2f#/)	.	.	2a/]	.	.
2B/ 2G/	.	4.b/	2g\ 2d\	4.D\	.	4.d\	.	4.g/	.	4.b\	.	4.D\	-wdę	.	4.d\	.	.	4.g/	.	.	4.b\	-wdę	.
.	.	8dd/	.	8D\	.	8B/	.	8g/	.	8dd\	.	8D\	w tem	.	8B\	.	.	8g/	.	.	8dd\	w tem	.
*	*	*v	*v	*	*	*	*	*	*	*	*	*	*	*	*	*	*	*	*	*	*	*	*
=22	=22	=22	=22	=22	=22	=22	=22	=22	=22	=22	=22	=22	=22	=22	=22	=22	=22	=22	=22	=22	=22	=22
2.A/ 2.F#/	2.D\	4.a/ 4.f#/	2.D\	.	2.A/	.	(4.f#/	.	(4.a/	.	2D\	sło-	.	2A\	.	.	(4.f#/	.	.	(4.a/	sło-	.
.	.	8f#/ 8d/	.	.	.	.	8d/)	.	8f#/)	.	.	.	.	.	.	.	8d/)	.	.	8f#/)	.	.
.	.	4a/ 4f#/	.	.	.	.	4f#/	.	4a/	.	4D\	-wie	.	4A\	.	.	4f#/	.	.	4a/	-wie	.
4D/	4DD/	4dd/ 4f#/	4D\	.	4r	.	4f#/	.	4dd\	.	4D\	My	.	4r	.	.	4f#/	.	.	4dd\	my	.
*v	*v	*	*	*	*	*	*	*	*	*	*	*	*	*	*	*	*	*	*	*	*	*
!!LO:PB:g=original
=23	=23	=23	=23	=23	=23	=23	=23	=23	=23	=23	=23	=23	=23	=23	=23	=23	=23	=23	=23	=23	=23
*	*^	*	*	*	*	*	*	*	*	*	*	*	*	*	*	*	*	*	*	*	*
2.E/ 2.EE/	2dd/	1g\	2.E\	.	1r	.	1g/	.	(2dd\	.	2E\	.	.	1r	.	.	2g/	.	.	2dd\	wszy-	.
.	4cc#/	.	.	.	.	.	.	.	4cc#\)	.	4E\	.	.	.	.	.	2g/	.	.	(4cc#\	-scy	.
4G/ 4GG/	4b/	.	4G\	.	.	.	.	.	4b\	.	4G\	.	.	.	.	.	.	.	.	4b\)	.	.
=24	=24	=24	=24	=24	=24	=24	=24	=24	=24	=24	=24	=24	=24	=24	=24	=24	=24	=24	=24	=24	=24	=24
4.F#/ 4.FF#/	4.a/	(2d\	(4.F#\	.	2r	.	(2d/	.	(4.a/	.	4.F#\	.	.	2r	.	.	2d/	.	.	(4.a/	bra-	.
16G/LL 16GG/	16b/LL	.	16G\LL	.	.	.	.	.	16b/LL	.	16G\LL	.	.	.	.	.	.	.	.	16b/LL	.	.
16F#/JJ 16FF#/	16a/JJ	.	16F#\JJ)	.	.	.	.	.	16a/JJ	.	16F#\JJ	.	.	.	.	.	.	.	.	16a/JJ	.	.
4E/ 4EE/	4g/	4c#\)	4E\	.	4r	.	4c#/)	.	4g/)	.	4E\	.	.	4r	.	.	4c#/	.	.	4g/)	-cia	.
4D/ 4DD/	4f#/	4d\	4D\	.	4A/	.	4d/	.	4f#/	.	4D\	.	.	4A\	.	.	4d/	.	.	4f#/	ie-	.
=25	=25	=25	=25	=25	=25	=25	=25	=25	=25	=25	=25	=25	=25	=25	=25	=25	=25	=25	=25	=25	=25	=25
*	*	*^	*	*	*	*	*	*	*	*	*	*	*	*	*	*	*	*	*	*	*	*
2D/ 2DD/	(4f#/	2d\	2ryy	2D\	.	2A/	.	2d/	.	(4f#/	.	(2D\	.	.	(2A\	.	.	(2d/	.	.	(>2f#/	-ste-	.
.	16g/LL	.	.	.	.	.	.	.	.	16g/LL	.	.	.	.	.	.	.	.	.	.	.	.	.
.	16f#/	.	.	.	.	.	.	.	.	16f#/	.	.	.	.	.	.	.	.	.	.	.	.	.
.	16e/	.	.	.	.	.	.	.	.	16e/	.	.	.	.	.	.	.	.	.	.	.	.	.
.	16f#/JJ	.	.	.	.	.	.	.	.	16f#/JJ	.	.	.	.	.	.	.	.	.	.	.	.	.
2G\ 2GG\	4.a/	2e\	4.B\	2GG/	.	4.B/	.	2e/	.	4.a/	.	2GG/)	.	.	4.B\	.	.	2e/)	.	.	4.a/	.	.
.	8g/)	.	8B-X\	.	.	8B-X/	.	.	.	8g/)	.	.	.	.	8B-X\)	.	.	.	.	.	8g/)	.	.
*	*v	*v	*v	*	*	*	*	*	*	*	*	*	*	*	*	*	*	*	*	*	*	*	*
=26	=26	=26	=26	=26	=26	=26	=26	=26	=26	=26	=26	=26	=26	=26	=26	=26	=26	=26	=26	=26	=26
2.E\ 2.AA\	2.e/ 2.c#/ 2.A/	8AA/L	.	2.A/	.	2.c#/	.	2.e/	.	2AA/	.	.	2A\	.	.	2c#/	.	.	2e/	-śmy	.
.	.	8AA/	.	.	.	.	.	.	.	.	.	.	.	.	.	.	.	.	.	.	.
.	.	8C#/	.	.	.	.	.	.	.	.	.	.	.	.	.	.	.	.	.	.	.
.	.	8E/J	.	.	.	.	.	.	.	.	.	.	.	.	.	.	.	.	.	.	.
.	.	4A\	.	.	.	.	.	.	.	2r	.	.	4r	.	.	4r	.	.	4r	.	.
!	!	!	!	!	!LO:DY:b	!	!	!	!LO:DY:b	!	!	!	!	!	!	!	!	!	!	!	!
.	.	.	.	.	p	.	.	.	.	.	.	.	.	.	.	.	.	.	.	.	.
4A\ 4AA\	4e/ 4c#/	4AA/	.	4A/	.	4c#/	.	4e/	p	.	.	.	4A\	.	.	4c#/	.	.	4e/	my	.
=27	=27	=27	=27	=27	=27	=27	=27	=27	=27	=27	=27	=27	=27	=27	=27	=27	=27	=27	=27	=27	=27
*^	*^	*^	*	*	*	*	*	*	*	*	*	*	*	*	*	*	*	*	*	*	*
8AA/L	2AA\	2e/	1c#\	8AA/L	4AA\	.	2A/	.	2c#/	.	2e/	.	1r	.	.	2A\	.	.	2c#/	.	.	2e/	wszy-	.
8A/	.	.	.	8A/	.	.	.	.	.	.	.	.	.	.	.	.	.	.	.	.	.	.	.	.
8E/	.	.	.	8E/	4r	.	.	.	.	.	.	.	.	.	.	.	.	.	.	.	.	.	.	.
8A/J	.	.	.	8A/J	.	.	.	.	.	.	.	.	.	.	.	.	.	.	.	.	.	.	.	.
*rep	*	*	*	*rep	*	*	*	*	*	*	*	*	*	*	*	*	*	*	*	*	*	*	*	*
8AA/L	2AA\	2a/	.	8AA/L	4AA\	.	2A/	.	2c#/	.	2a/	.	.	.	.	2A\	.	.	2c#/	.	.	2a/	-scy	.
8A/	.	.	.	8A/	.	.	.	.	.	.	.	.	.	.	.	.	.	.	.	.	.	.	.	.
8E/	.	.	.	8E/	4r	.	.	.	.	.	.	.	.	.	.	.	.	.	.	.	.	.	.	.
8A/J	.	.	.	8A/J	.	.	.	.	.	.	.	.	.	.	.	.	.	.	.	.	.	.	.	.
*Xrep	*	*	*	*Xrep	*	*	*	*	*	*	*	*	*	*	*	*	*	*	*	*	*	*	*	*
*	*	*v	*v	*	*	*	*	*	*	*	*	*	*	*	*	*	*	*	*	*	*	*	*	*
=28	=28	=28	=28	=28	=28	=28	=28	=28	=28	=28	=28	=28	=28	=28	=28	=28	=28	=28	=28	=28	=28	=28	=28
*	*	*	*rep	*rep	*	*	*	*	*	*	*	*	*	*	*	*	*	*	*	*	*	*	*
8AA/L	2AA\	2cc#/ 2e/	8AA/L	4AA\	.	2A/	.	2e/	.	(2cc#\	.	2r	.	.	2A\	.	.	2e/	.	.	(2cc#\	Je-	.
8A/	.	.	8A/	.	.	.	.	.	.	.	.	.	.	.	.	.	.	.	.	.	.	.	.
8E/	.	.	8E/	4r	.	.	.	.	.	.	.	.	.	.	.	.	.	.	.	.	.	.	.
8A/J	.	.	8A/J	.	.	.	.	.	.	.	.	.	.	.	.	.	.	.	.	.	.	.	.
*rep	*	*	*rep	*	*	*	*	*	*	*	*	*	*	*	*	*	*	*	*	*	*	*	*
8AA/L	2AA\	4a/ 4c#/	8AA/L	4AA\	.	4A/	.	4c#/	.	4a/)	.	4r	.	.	4A\	.	.	4c#/	.	.	4a\)	-go	.
8A/	.	.	8A/	.	.	.	.	.	.	.	.	.	.	.	.	.	.	.	.	.	.	.	.
8E/	.	4cc#/ 4e/	8E/	4r	.	4A/	.	4e/	.	4cc#\	.	4A\	.	.	4A\	.	.	4e/	.	.	4cc#\	Sy-	.
8A/J	.	.	8A/J	.	.	.	.	.	.	.	.	.	.	.	.	.	.	.	.	.	.	.	.
*Xrep	*	*	*Xrep	*	*	*	*	*	*	*	*	*	*	*	*	*	*	*	*	*	*	*	*
*	*	*	*Xrep	*Xrep	*	*	*	*	*	*	*	*	*	*	*	*	*	*	*	*	*	*	*
!!LO:LB:g=original
=29	=29	=29	=29	=29	=29	=29	=29	=29	=29	=29	=29	=29	=29	=29	=29	=29	=29	=29	=29	=29	=29	=29	=29
*tremolo	*	*	*tremolo	*	*	*	*	*	*	*	*	*	*	*	*	*	*	*	*	*	*	*	*
8AA/L	2AA\	2ee/ 2g/	8AA/L	2AA\	.	1A/	.	(2g/	.	(2ee\	>	(2A\	.	.	1A\	.	.	2g/	.	.	(2ee\	-no-	.
8A/	.	.	8A/	.	.	.	.	.	.	.	.	.	.	.	.	.	.	.	.	.	.	.	.
8AA/	.	.	8AA/	.	.	.	.	.	.	.	.	.	.	.	.	.	.	.	.	.	.	.	.
8A/J	.	.	8A/J	.	.	.	.	.	.	.	.	.	.	.	.	.	.	.	.	.	.	.	.
*	*	*	*rep	*	*	*	*	*	*	*	*	*	*	*	*	*	*	*	*	*	*	*	*
8AA/L	2AA\	4dd/ 4f#/	8AA/L	4AA\	.	.	.	4f#/)	.	4dd\	]	2AA/)	.	.	.	.	.	4f#/	.	.	4dd\	.	.
8A/	.	.	8A/	.	.	.	.	.	.	.	.	.	.	.	.	.	.	.	.	.	.	.	.
8AA/	.	4cc#/ 4e#X/	8AA/	4AA\	.	.	.	4e#X/	.	4cc#\)	.	.	.	.	.	.	.	4e#X/	.	.	4cc#\)	.	.
8A/J	.	.	8A/J	.	.	.	.	.	.	.	.	.	.	.	.	.	.	.	.	.	.	.	.
*Xtremolo	*	*	*Xtremolo	*Xtremolo	*	*	*	*	*	*	*	*	*	*	*	*	*	*	*	*	*	*	*
*	*	*	*Xrep	*	*	*	*	*	*	*	*	*	*	*	*	*	*	*	*	*	*	*	*
*v	*v	*	*v	*v	*	*	*	*	*	*	*	*	*	*	*	*	*	*	*	*	*	*	*
=30	=30	=30	=30	=30	=30	=30	=30	=30	=30	=30	=30	=30	=30	=30	=30	=30	=30	=30	=30	=30	=30
8D\L	2dd/ 2f#/	8D\L	.	2A/	.	2f#/	.	2dd\	.	2D\	.	.	2A\	.	.	2f#/	.	.	2dd\	-wie	.
8F#\	.	8F#\	.	.	.	.	.	.	.	.	.	.	.	.	.	.	.	.	.	.	.
8A\	.	8A\	.	.	.	.	.	.	.	.	.	.	.	.	.	.	.	.	.	.	.
8d\J	.	8d\J	.	.	.	.	.	.	.	.	.	.	.	.	.	.	.	.	.	.	.
8BB\L	2f#/ 2d/	8BB\L	.	2d\	.	2f#/	.	2f#/	.	2B\	.	.	2d\	.	.	2d/	.	.	2f#/	mi-	.
8D\	.	8D\	.	.	.	.	.	.	.	.	.	.	.	.	.	.	.	.	.	.	.
8F#\	.	8F#\	.	.	.	.	.	.	.	.	.	.	.	.	.	.	.	.	.	.	.
8B\J	.	8B\J	.	.	.	.	.	.	.	.	.	.	.	.	.	.	.	.	.	.	.
=31	=31	=31	=31	=31	=31	=31	=31	=31	=31	=31	=31	=31	=31	=31	=31	=31	=31	=31	=31	=31	=31
*	*^	*	*	*	*	*	*	*	*	*	*	*	*	*	*	*	*	*	*	*	*
8GG/L	2b/ 2g/ 2d/	2ryy	8GG/L	.	2B/	.	2d/	.	(>2b/	.	2G\	.	.	2B\	.	.	2d/	.	.	2b\	-ło-	.
8BB/	.	.	8BB/	.	.	.	.	.	.	.	.	.	.	.	.	.	.	.	.	.	.	.
8D/	.	.	8D/	.	.	.	.	.	.	.	.	.	.	.	.	.	.	.	.	.	.	.
8G/J	.	.	8G/J	.	.	.	.	.	.	.	.	.	.	.	.	.	.	.	.	.	.	.
!LO:TX:a:t=P:problem:mixed beam	!	!	!LO:TX:a:t=P:problem:mixed beam	!	!	!	!	!	!	!	!	!	!	!	!	!	!	!	!	!	!	!
8GG/L	4e/	2d\ 2B\	8GG/L	.	2B/	.	2d/	.	4e/	.	(4G\	.	.	2B\	.	.	2d/	.	.	(>4e/	-ścią	.
8G\J	.	.	8G\J	.	.	.	.	.	.	.	.	.	.	.	.	.	.	.	.	.	.	.
!LO:TX:a:t=P:problem:mixed beam	!	!	!LO:TX:a:t=P:problem:mixed beam	!	!	!	!	!	!	!	!	!	!	!	!	!	!	!	!	!	!	!
8GG#X/L	4d#X/	.	8GG#X/L	.	.	.	.	.	4e#X/	.	4G#X\)	.	.	.	.	.	.	.	.	4e#X/)	.	.
8G#X\J	.	.	8G#X\J	.	.	.	.	.	.	.	.	.	.	.	.	.	.	.	.	.	.	.
=32	=32	=32	=32	=32	=32	=32	=32	=32	=32	=32	=32	=32	=32	=32	=32	=32	=32	=32	=32	=32	=32	=32
*	*	*	*	*	*tremolo	*	*tremolo	*	*tremolo	*	*	*	*	*	*	*	*	*	*	*	*	*
!	!LO:TX:a:t=P:problem:mixed beam	!	!LO:TX:a:t=P:problem:mixed beam	!LO:DY:rj	!	!	!	!	!	!LO:DY:rj:a	!	!	!	!	!	!	!	!	!	!	!	!LO:DY:rj:a
8AA/L	2f#/	2.d\	8AA/L	f	8A/L	.	8d/L	.	8f#/L)	f	2A\	.	f	2A\	.	.	2d/	.	.	2f#/	chwa-	f
8A\	.	.	8A\	.	8A/	.	8d/	.	8f#/	.	.	.	.	.	.	.	.	.	.	.	.	.
8AA/	.	.	8AA/	.	8A/	.	8d/	.	8f#/	.	.	.	.	.	.	.	.	.	.	.	.	.
8A\J	.	.	8A\J	.	8A/	.	8d/	.	8f#/J	.	.	.	.	.	.	.	.	.	.	.	.	.
!LO:TX:a:t=P:problem:mixed beam	!	!	!LO:TX:a:t=P:problem:mixed beam	!	!	!	!	!	!	!	!	!	!	!	!	!	!	!	!	!	!	!
8FF#/L	4a/	.	8FF#/L	.	8A/	.	8d/	.	8a/L	.	4F#\	.	.	4A\	.	.	4d/	.	.	4a/	-łę	.
8F#\J	.	.	8F#\	.	8A/	.	8d/J	.	8a/J	.	.	.	.	.	.	.	.	.	.	.	.	.
!LO:TX:a:t=P:problem:mixed beam	!	!	!	!	!	!	!	!	!	!	!	!	!	!	!	!	!	!	!	!	!	!
8DD/L	4dd/	4d\	8DD/	.	8A/	.	8f#/L	.	8dd\L	.	4D\	.	.	4A\	.	.	4f#/	.	.	4dd\	mu	.
8D\J	.	.	8D/J	.	8A/J	.	8f#/J	.	8dd\J	.	.	.	.	.	.	.	.	.	.	.	.	.
*	*	*	*	*	*Xtremolo	*	*	*	*	*	*	*	*	*	*	*	*	*	*	*	*	*
=33	=33	=33	=33	=33	=33	=33	=33	=33	=33	=33	=33	=33	=33	=33	=33	=33	=33	=33	=33	=33	=33	=33
*^	*	*	*	*	*	*	*	*	*	*	*	*	*	*	*	*	*	*	*	*	*	*
1A/	[>2.AA\	4dd/	2.e\	2.AA/	.	1A/	.	(2.e/	.	(4dd\	.	[2.AA/	.	.	1A\	.	.	(2.e/	.	.	(4dd\	wznie-	.
.	.	8cc#/L	.	.	.	.	.	.	.	8cc#\L	.	.	.	.	.	.	.	.	.	.	8cc#\L	.	.
.	.	8b/J	.	.	.	.	.	.	.	8b\J	.	.	.	.	.	.	.	.	.	.	8b\J	.	.
.	.	4..cc#/	.	.	.	.	.	.	.	4..cc#\	.	.	.	.	.	.	.	.	.	.	4..cc#\	.	.
.	8.AA\L]	.	8.g\L	8.AA/L	.	.	.	8.g/L	.	.	.	8.AA/L]	.	.	.	.	.	8.g/L	.	.	.	.	.
.	16D\Jk	16dd/	16f#\Jk	16D/Jk	.	.	.	16f#/Jk)	.	16dd\)	.	16D/Jk	.	.	.	.	.	16f#/Jk)	.	.	16dd\)	.	.
*v	*v	*	*	*	*	*	*	*	*	*	*	*	*	*	*	*	*	*	*	*	*	*	*
=34	=34	=34	=34	=34	=34	=34	=34	=34	=34	=34	=34	=34	=34	=34	=34	=34	=34	=34	=34	=34	=34	=34
4A\ 4D\	4dd/	4f#/	4D\	.	4A/	.	4f#/	.	4dd\	.	4D/	.	.	4A\	.	.	4f#/	.	.	4dd\	-śmy	.
4r	4r	4ryy	4r	.	4r	.	4r	.	4r	.	4r	.	.	4r	.	.	4r	.	.	4r	.	.
8F#\L	8ff#/L	4.f#\	8F#\L	.	8F#'/L	.	4.f#/	.	8ff#'\L	.	2r	.	.	2r	.	.	2r	.	.	2r	.	.
8A#X\	8cc#/	.	8A#X\	.	(8A#X/	.	.	.	(8cc#\	.	.	.	.	.	.	.	.	.	.	.	.	.
8B\	8dd/	.	8B\	.	8B/	.	.	.	8dd\	.	.	.	.	.	.	.	.	.	.	.	.	.
8G\J	8b/J	8g\	8G\J	.	8G/J)	.	8g/	.	8b\J	.	.	.	.	.	.	.	.	.	.	.	.	.
*	*v	*v	*	*	*	*	*	*	*	*	*	*	*	*	*	*	*	*	*	*	*	*
!!LO:PB:g=original
=35	=35	=35	=35	=35	=35	=35	=35	=35	=35	=35	=35	=35	=35	=35	=35	=35	=35	=35	=35	=35	=35
4F#\	4a/ 4d/	(4F#\	.	(4F#/	.	(4d/	.	(>4a/)	.	1ryy	.	.	1ryy	.	.	1ryy	.	.	1ryy	.	.
8E\L	8g/L 8c#/	8E\L	.	8E/L	.	8c#/L	.	8g/L	.	.	.	.	.	.	.	.	.	.	.	.	.
8D\J	8f#/J 8d/	8D\J	.	8D/J	.	8d/J	.	8f#/J	.	.	.	.	.	.	.	.	.	.	.	.	.
4G\ 4GG\	4e/ 4d/ 4B/	4G\)	.	4B/)	.	4d/)	.	4e/	.	.	.	.	.	.	.	.	.	.	.	.	.
4E\ 4AA\	4a/ 4c#/ 4A/	4A\	.	4A/	.	4c#/	.	4a/	.	.	.	.	.	.	.	.	.	.	.	.	.
=36	=36	=36	=36	=36	=36	=36	=36	=36	=36	=36	=36	=36	=36	=36	=36	=36	=36	=36	=36	=36	=36
4D/ 4DD/	4f#/ 4d/ 4A/	4D\	.	4A/	.	4d/	.	4f#/)	.	1ryy	.	.	1ryy	.	.	1ryy	.	.	1ryy	.	.
4r	4r	4r	.	4r	.	4r	.	4r	.	.	.	.	.	.	.	.	.	.	.	.	.
!	!	!	!	!	!	!	!	!	!LO:DY:a	!	!	!	!	!	!	!	!	!	!	!	!
.	.	.	p	.	.	.	.	.	p	.	.	.	.	.	.	.	.	.	.	.	.
8F#/L	8f#/L	8F#'\L	.	8f#'\L	.	2r	.	8f#'/L	.	.	.	.	.	.	.	.	.	.	.	.	.
8C#/	8a#X/	(8C#\	.	(8c#\	.	.	.	(8a#X/	.	.	.	.	.	.	.	.	.	.	.	.	.
8D/	8b/	8D\	.	8d\	.	.	.	8b/	.	.	.	.	.	.	.	.	.	.	.	.	.
8BB/J	8g/J	8BB\J)	.	8B\J)	.	.	.	8g/J	.	.	.	.	.	.	.	.	.	.	.	.	.
=37	=37	=37	=37	=37	=37	=37	=37	=37	=37	=37	=37	=37	=37	=37	=37	=37	=37	=37	=37	=37	=37
!	!	!LO:TX:a:t=P:problem:mixed beam	!	!	!	!	!	!	!	!	!	!	!	!	!	!	!	!	!	!	!
4AA\	4f#/ 4d/ 4A</	8AA/L	.	2A/	.	4d/	.	4f#/)	.	1ryy	.	.	1ryy	.	.	1ryy	.	.	1ryy	.	.
.	.	8A\	.	.	.	.	.	.	.	.	.	.	.	.	.	.	.	.	.	.	.
8GG\L	8e/ 8c#/L 8A</	8G\	.	.	.	(8c#/L	.	(>8e/L	.	.	.	.	.	.	.	.	.	.	.	.	.
8FF#\J	8d/ 8A</J	8F#\J	.	.	.	8d/J	.	8d/J	.	.	.	.	.	.	.	.	.	.	.	.	.
4EE\	4g/ 4e/ 4B/	4E\	.	4B/	.	4e/	.	4g/	.	.	.	.	.	.	.	.	.	.	.	.	.
4AA\ 4AAA\	4e/ 4c#/ 4A</ 4G</	4AA/	.	4G/	.	4c#/)	.	4e/	.	.	.	.	.	.	.	.	.	.	.	.	.
=38	=38	=38	=38	=38	=38	=38	=38	=38	=38	=38	=38	=38	=38	=38	=38	=38	=38	=38	=38	=38	=38
4D\ 4DD\	4d/ 4A</ 4F#</	4D\	.	4F#/	.	4d/	.	4d/)	.	1ryy	.	.	1ryy	.	.	1ryy	.	.	1ryy	.	.
4r	4r	4r	.	4r	.	4r	.	4r	.	.	.	.	.	.	.	.	.	.	.	.	.
2r;	2r;	2r;	.	2r;	.	2r;	.	2r;	.	.	.	.	.	.	.	.	.	.	.	.	.
==	==	==	==	==	==	==	==	==	==	==	==	==	==	==	==	==	==	==	==	==	==
*-	*-	*-	*-	*-	*-	*-	*-	*-	*-	*-	*-	*-	*-	*-	*-	*-	*-	*-	*-	*-	*-
!!!system-decoration: [(s1,s2,s3,s4)][(s5,s6,s7,s8)]{(s9,s10)}
!!!RDF**kern: > = above
!!!RDF**kern: < = below
!!!EED: Leszek Kubiak
!!!EST: 2021-04-30
!!!AIN: 1 alto 1 bass 1 empty 1 organ 1 soprn 1 tenor 1 viola 2 violn
!!!ENC: Andrzej Gręziak
!!!END: 2021-04-11
